X:1
T:Gesammelte Motetten
T:Gott, dein Weg ist heilig
T:Johann Heinrich Rolle
T:Gott, dein Weg ist heilig
T:Psalm 77,14-15
T:CPDL - Creative Commons Attribution Non Commercial 3.0
T:CPDL - Creative Commons Attribution Non Commercial 3.0
T:CPDL - Creative Commons Attribution Non Commercial 3.0
T:CPDL - Creative Commons Attribution Non Commercial 3.0
T:CPDL - Creative Commons Attribution Non Commercial 3.0
T:CPDL - Creative Commons Attribution Non Commercial 3.0
C:Johann Heinrich Rolle
Z:CPDL - Creative Commons Attribution Non Commercial 3.0
%%score [ 1 2 3 4 ]
L:1/8
Q:1/4=109
M:4/4
K:D
V:1 treble nm="Sopran"
V:2 treble nm="Alt"
V:3 treble-8 nm="Tenor"
V:4 bass nm="Bass"
V:1
 A4 z4 | B4 z2 d2 | (c2 B2 A2) G2 | (F2 B2) A2 A2 | A8- | A8- | (A2 f2) e2 d2 | %7
w: Gott,|Gott, dein|Weg _ _ ist|hei- * lig, ist|hei-||* * lig, ist|
 (d2 cB/A/) !fermata!A4 | z8 | z8 | z4 z2"^Tutti" A>B | c2 c2 c2 c>d | e4 z2 f2 | (e2 d2) z2 e2 | %14
w: hei- * * * lig.|||Wo ist|so ein mäch- ti- ger|Gott als|du, _ als|
 (d2 c2) z2 c2 | B4 B4 | B2 d2 c2 d2 | (c4 !fermata!B4) | E2 (F>^G A2) d2 | (d4 c2) B2 | %20
w: du, _ als|du, Gott,|bist, als du, Gott,|bist! _|Du bist _ _ der|Gott, _ der|
 (B4 A2) B2 | (B4 A2) d2 | (d4 c2) f2 | (f4 e2) A2 | (B2 d)B (c2 e)^G | A4 z2 A2 | %26
w: Wun- * der,|Wun- * der|tut, _ der|Gott, _ der|Gott, _ der Wun- * der|tut, der|
 (B2 d)B (c2 e)^G | A2 f2 e2 d2 | c4 B4 | A4 |"^Solo" z4 | z8 | z8 | z8 | z8 |"^Tutti" A4 z4 | %36
w: Gott, _ der Wun- * der|tut, der Gott der|Wun- der|tut.||||||Gott,|
 B4 z2 d2 | (c2 B2 A2) G2 | (F2 B2) A2 A2 | A8- | A4 A2 B2 | B8- | B8- | (B2 g2) f2 e2 | %44
w: Gott, dein|Weg _ _ ist|hei- * lig, ist|hei-|* lig, ist|hei-||* * lig ist|
 (e2 ^dc/B/) !fermata!B4 | z8 | z8 | z4 z2"^Tutti" B>c | ^d2 d2 d2 e>c | ^d2 e2 f2 A2 | G4 g4 | %51
w: hei- * * * lig.|||Wo ist|so ein mäch- ti- ger|Gott, als du, Gott,|bist, als|
 e4 =d4 | (d2 c2) z4 | z8 | z4 z2"^Tutti" A>B | c2 c2 c2 d>B | c2 d2 e2 G2 | F4 =c4 | %58
w: du, Gott,|bist! _||Wo ist|so ein mäch- ti- ger|Gott, als du, Gott,|bist, du,|
 z2 =c2 B2 d2 |{!fermata!d} !fermata!^c8 | z8 | z8 | A2 (B>c d2) g2 | (g4 f2) B2 | (B4 A2) d2 | %65
w: als du, Gott,|bist!|||Du bist _ _ der|Gott, _ der|Gott, _ der|
 (e2 g)e f2 c2 | d4 z2 d2 | (e2 g)e f2 c2 | d2 f2 d2 B2 | ^G2 B2 G2 D2 | (D4 !fermata!C4) | %71
w: Wun- * der, Wun- der|tut, der|Wun- * der, Wun- der|tut, du bist der|Gott, du bist der|Gott, _|
 A2 (B>c d2) G2 | F2 c2 d2 B2 | (A4 e3) e | d2 g2 f2 e2 | f8 | e8 | d8 |] %78
w: du bist _ _ der|Gott, der Gott, der|Wun- * der|tut, der Gott der|Wun-|der|tut.|
V:2
 F4 z4 | G4 z2 G2 | G6 E2 | (D2 G2) F2 E2 | (A2 G2 F2 E2) | (A2 G2) F2 E2 | A4 G2 F2 | %7
w: Gott,|Gott, dein|Weg ist|hei- * lig, ist|hei- * * *|* * lig, ist|hei- lig, ist|
 E4 !fermata!E4 | z4 z2 C>D | E2 E2 E2 F>^G | A4 z2 E>^G | A2 A2 A2 A>B | c4 z2 c2 | %13
w: hei- lig.|Wo ist|so ein mäch- ti- ger|Gott, wo ist|so ein mäch- ti- ger|Gott als|
 (c2 B2) z2 B2 | (B2 A2) z2 A2 | A4 A4 | ^G2 B2 A2 B2 | (A4 !fermata!^G4) | E2 (F>^G A2) B2 | %19
w: du, _ als|du, _ als|du, Gott,|bist, als du, Gott,|bist! _|_ _ _ _ _|
 (B4 A2) ^G2 | (^G4 E2) E2 | E6 B2 | (B4 A2) A2 | A6 A2 | A2 A2 A2 ^G2 | A4 z2 A2 | A2 A2 A2 ^G2 | %27
w: |||||Gott der Wun- der|tut, der|Gott, der Wun- der|
 A2 d2 c2 B2 | A4 ^G4 | A4 | z2 E2 | E4 E4 | E8- | (E2 c2) B2 A2 | (^G3 A/B/) A4 | F4 z4 | %36
w: tut, der Gott der|Wun- der|tut.|Dein|Weg ist|hei-|* * lig, ist|hei- * * lig,|Gott,|
 =G4 z2 G2 | G6 E2 | (D2 G2) F2 E2 | (A2 G2) F2 E2 | (A2 G2 F2) F2 | (B2 A2) =G2 F2 | %42
w: Gott, dein|Weg ist|hei- * lig, ist|hei- * lig, dein|Weg _ _ ist|hei- * lig, dein|
 (B2 A2 G2) F2 | (E2 B2) A2 G2 | F4 !fermata!F4 | z6 ^D>E | F2 F2 F2 G>E | F4 z2 B>B | %48
w: Weg _ _ ist|hei- * lig, ist|hei- lig.|Wo ist|so ein mäch- ti- ger|Gott, wo ist|
 B2 B2 B2 B>B | B2 G2 A2 F2 | E4 B4 | B4 B4 | (B2 A2) z2 C>D | E2 E2 E2 F>^G | A4 z2 A>A | %55
w: so ein mäch- ti- ger|Gott, als du, Gott,|bist, als|du, Gott,|bist. _ wo ist|so ein mäch- ti- ger|Gott, wo ist|
 A2 A2 A2 A>A | A2 F2 G2 E2 | D4 A4 | z2 A2 G2 B2 | !fermata!A8 | A,2 (B,>C D2) E2 | (E4 D2) E2 | %62
w: so ein mäch- ti- ger|Gott, als du, Gott,|bist, du,|als du, Gott,|bist!|Du bist _ _ der|Gott _ der|
 D6 A2 | A6 G2 | (G4 F2) A2 | B2 B2 A2 c2 | d4 z2 A2 | .B2 .B2 .A2 .c2 | d4 z4 | z2 ^G2 G2 G2 | %70
w: Wun- der|tut, der|Gott, _ der|Wun- der, Wun- der|tut, der|Wun- der, Wun- der|tut,|du bist der|
 (^G4 !fermata!A4) | A2 (B>c d2) G2 | F2 G2 A2 G2 | (F4 G2) G2 | F2 A2 A2 B2 | A8 | G8 | F8 |] %78
w: ||||||||
V:3
 d4 z4 | d4 z2 e2 | (e2 d2 c2) c2 |"^hei-lig" d2 D2 z2 c2 | (d2 e2 d2 c2) | (d2 e2) d2 c2 | %6
w: ||||||
 d4 B2 d2 | A4 !fermata!c4 | z4 z2 A>B | c2 c2 c2 d>B | c4 z2 c>e | A2 A2 A2 A>A | A4 z2 f2 | %13
w: |||||||
 f4 z2 e2 | e4 z2 f2 | f4 f4 | e2 e2 e2 f2 | !fermata!e8 | z8 | z8 | E2 (F>^G A2) d2 | (d4 c2) e2 | %22
w: |||||||Du bist _ _ der|Gott, _ der|
 e6 d2 | A6 e2 | f2 f2 e2 d2 | c4 z2 e2 | f2 f2 e2 d2 | c2 A2 e2 e2 | e4 d4 | c4 | z2 ^G2 | %31
w: Wun- der|tut, der|||||||Dein|
 (A2 B>d c2) ^G2 | (A2 B>d) c2 ^G>B | (A2 e2) d2 c2 | (B3 c/d/) c4 | d4 z4 | d4 z2 e2 | %37
w: Weg _ _ _ ist|hei- * * lig, ist _|hei- * lig, ist|hei- * * lig,|||
 (e2 d2 c2) c2 | d4 d2 c2 | (d2 e2) d2 c2 | (d2 e2 d2) ^d2 | (e2 f2) e2 ^d2 | (e2 f2 e2) ^d2 | %43
w: ||||||
 e4 A2 A2 | B4 !fermata!^d4 | z4 z2 B>c | ^d2 d2 d2 e>c | ^d4 z2 d>e | f2 f2 f2 g>e | %49
w: ||||||
 f2 e2 ^d2 d2 | e4 e4 | e4 e4 | e4 z2 A>B | c2 c2 c2 d>B | c4 z2 c>d | e2 e2 e2 f>d | e2 d2 c2 c2 | %57
w: ||||||||
 A4 d4 | z2 d2 d2 e2 | !fermata!e8 | z8 | A2 (B>c d2) g2 | (g4 f2) e2 | (e4 d2) d2 | %64
w: ||||Du bist _ _ der|Gott, _ der|Wun- * der|
"^tut," d4 z2 d2 | d2 d2 d2 g2 | f6 d2 | .d2 .d2 .d2 .g2 | f4 z4 | z2 d2 d2 d2 | (d4 !fermata!c4) | %71
w: ||||||Gott, _|
 A2 (B>c d2) G2 | F2 e2 d2 d2 | d4 c4 | d2 e2 d2 d2 | d8 | c8 | A8 |] %78
w: du bist _ _ der|Gott, der Gott, der|Wun- der|tut, der Gott, der|Wun-|der|tut.|
V:4
 D,4 z4 | G,4 z2 E,2 | A,6 A,,2 | D,2 D,2 z2 G,2 | (F,2 C,2 D,2 G,2) | (F,2 C,2) D,2 G,2 | %6
w: Gott,|Gott, dein|Weg ist|hei- lig, ist|hei- * * *|* * lig, ist|
 F,4 G,2 G,2 | A,4 !fermata!A,,4 | z8 | z4 z2"^Solo" A,>A, | A,2 A,2 A,2 A,>A, | %11
w: hei- lig, ist|hei- lig.||Wo ist|so ein mäch- ti- ger|
 A,4 z2"^Tutti" A,>A, | A,2 A,2 A,2 A,>A, | B,2 B,2 ^G,4 | z2 A,2 F,4 | D,4 ^D,4 | E,4 A,2 =D,2 | %17
w: Gott, wo ist|so ein mäch- ti- ger|Gott, als du,|als du,|du, Gott,|bist, du Gott|
 !fermata!E,8 | z8 | E,2 (F,>^G, A,2) D2 | (D4 C2) ^G,2 | (^G,4 A,2) G,2 | (^G,4 A,2) D,2 | %23
w: bist.||Du bist _ _ der|Gott, _ der|Wun- * der|tut, _ der|
 C,6 C,2 | D,2 D,2 E,2 E,2 | F,2 (A,>^G, A,2) C,2 | D,2 D,2 E,2 E,2 | F,4 ^G,4 | A,4 E,4 | A,,4 | %30
w: Gott, der|Gott der Wun- der|tut, Wun- * * der|tut, der Wun- der|tut, der|Wun- der|tut.|
 z2 D,2 | (C,2 ^G,2 A,2) D,2 | (C,2 ^G,2) A,2 D,2 | C,4 D,2 D,2 | E,4 A,,4 | D,4 z4 | G,4 z2 E,2 | %37
w: |||||Gott,|Gott, dein|
 A,6 A,,2 | D,2 D,2 z2 G,2 | (F,2 C,2) D,2 G,2 | (F,2 C,2 D,2) A,2 | (G,2 ^D,2) E,2 A,2 | %42
w: Weg ist|hei- lig, ist|hei- * lig, dein|Weg _ _ ist|hei- * lig, dein|
 (G,2 ^D,2 E,2) A,2 | G,4 A,2 A,2 | B,4 !fermata!B,,4 | z8 | z4 z2"^Solo" B,>B, | %47
w: Weg _ _ ist|hei- lig, ist|hei- lig.||Wo ist|
 B,2 B,2 B,2 B,>B, | B,4 z2"^Tutti" B,>B, | B,2 B,2 B,2 B,>B, | E,4 E,4 | G,4 ^G,4 | %52
w: so ein mäch- ti- ger|Gott, wo ist|so ein mäch- ti- ger|Gott, als|du, Gott|
 A,2"^(Tutti)" A,2 A,2 A,>A, | A,4 z2"^Solo" A,>A, | A,2 A,2 A,2 A,>A, | %55
w: bist, ein mäch- ti- ger|Gott, wo ist|so ein mäch- ti- ger|
 A,2"^Tutti" A,2 A,2 A,>A, | A,2 A,2 A,2 A,2 | D,4 F,4 | z2 F,2 G,2 ^G,2 | !fermata!A,8 | %60
w: Gott, ein mäch- ti- ger|Gott, als du, Gott,|bist, du,|als du, Gott,|bist!|
 A,2 (B,>C D2) G,2 | (G,4 F,2) C,2 | D,6 C,2 | D,2 A,2 D2 D,2 | z2 D,2 D,2 F,2 | G,2 G,2 A,2 A,2 | %66
w: Du bist _ _ der|Gott, _ der|Wun- der|tut, der Wun- der,|der Wun- der|tut, der Wun- der|
 B,2 (D>C D2) F,2 | .G,2 .G,2 .A,2 .A,2 | B,4 z4 | z2 B,2 B,2 B,2 | !fermata!A,8 | %71
w: tut, Wun- * * der,|Wun- der, Wun- der|tut,|du bist der||
 A,2 (B,>C D2) G,2 | F,2 E,2 F,2 G,2 | A,4 A,4 | B,2 C2 D2 G,2 | A,8 | A,,8 | D,8 |] %78
w: |||||||

